X:2089
T:Spelsug
M:4/4
L:1/8
K:G
V:1

|: "A" v(g/f/)e (g/f/)e a2 uguf | "G" (g/f/)e (g/f/)e "Dadd9"de (c/B/)A | "A"(g/f/)e (g/f/)e a2 uguf | "G6"(g/f/)e de "Am"cA z2 :|
|| "Am"vAB cd ef ga | "A11"gf ed cB AG | "Am6"AB cd ef ga | "Em7"ba gf ed cB |
| "Fmaj"vAB cd ef ga | "G6"gf ed cB AG | "Fmaj"AB cd ef ga | "Em7"ba gf "G6" ed cB ||
|:"C"vcg zug (gc) c2 | "Bm7"Bf zuf "E11"(fB) B2 | "Am"Ae zue (ea) "D" f2 | "Em7"(g/f/)e de "Am"cA z2 :|


V:2
|: vge ge a2 uguf |  ge ge de cA | ge ge a2 uguf |  ge de cA z2 :|
|| vAB cd ef ga | gf ed cB AG |AB cd ef ga |ba gf ed cB |
| vAB cd ef ga | gf ed cB AG | AB cd ef ga | ba gf ed cB ||
|:vcg zug (gc) c2 | Bf zuf (fB) B2 | Ae zue (ea) f2 | ge de "Am"cA z2 :|
V:3 
|:A,,2 A,,2 A,,2 A,,2 | G,,2 G,,2 D,,2 D,,2 | A,,2 A,,2 A,,2 A,,2 | G,,G,, G,,G,, A,,A,, z2 :|
|| C,C, C,C, C,C, C,C, | B,,B,, B,,B,, B,,B,, B,,B,, | A,,A,, A,,A,, A,,A,, A,,A,, | G,,G,, G,,G,, G,,G,, G,,G,, |
| =F,,F,, F,,F,, F,,F,, F,,F,, | G,,G,, G,,G,, G,,G,, G,,G,, |  A,,A,, A,,A,, A,,A,, A,,A,, |  B,,B,, B,,B,, G,,G,, G,,G,, ||
|: E,2 C,2 G,,2 E,2 | F,2 D,2 B,,2 F,2 | E,2 C,2 A,,2 D,2 | A,,A,, G,,G,, A,,A,, z2 :|


(:musicend:)
(:music:)
